src/img/companies/slack.svg

<svg xmlns="http://www.w3.org/2000/svg" viewBox="0 0 100 100" style="enable-background:new 0 0 100 100" xml:space="preserve"><path d="M37.1 1.5c-5.4 0-9.7 4.4-9.7 9.7s4.4 9.7 9.7 9.7h9.7v-9.7c0-5.3-4.4-9.7-9.7-9.7m0 25.8H11.3c-5.4 0-9.7 4.4-9.7 9.7s4.4 9.7 9.7 9.7h25.8c5.4 0 9.7-4.4 9.7-9.7s-4.4-9.7-9.7-9.7z" style="fill-rule:evenodd;clip-rule:evenodd;fill:#36c5f0"/><path d="M98.5 37.1c0-5.4-4.4-9.7-9.7-9.7-5.4 0-9.7 4.4-9.7 9.7v9.7h9.7c5.3 0 9.7-4.4 9.7-9.7zm-25.8 0V11.3c0-5.4-4.4-9.7-9.7-9.7s-9.7 4.4-9.7 9.7v25.8c0 5.4 4.4 9.7 9.7 9.7s9.7-4.4 9.7-9.7z" style="fill-rule:evenodd;clip-rule:evenodd;fill:#2eb67d"/><path d="M62.9 98.5c5.4 0 9.7-4.4 9.7-9.7 0-5.4-4.4-9.7-9.7-9.7h-9.7v9.7c0 5.3 4.4 9.7 9.7 9.7zm0-25.8h25.8c5.4 0 9.7-4.4 9.7-9.7s-4.4-9.7-9.7-9.7H62.9c-5.4 0-9.7 4.4-9.7 9.7s4.4 9.7 9.7 9.7z" style="fill-rule:evenodd;clip-rule:evenodd;fill:#ecb22e"/><path d="M1.5 62.9c0 5.4 4.4 9.7 9.7 9.7s9.7-4.4 9.7-9.7v-9.7h-9.7c-5.3 0-9.7 4.4-9.7 9.7zm25.8 0v25.8c0 5.4 4.4 9.7 9.7 9.7s9.7-4.4 9.7-9.7V62.9c0-5.4-4.4-9.7-9.7-9.7s-9.7 4.4-9.7 9.7" style="fill-rule:evenodd;clip-rule:evenodd;fill:#e01e5a"/></svg>

<?xml version="1.0" encoding="utf-8"?>
<!-- Generator: Adobe Illustrator 23.0.1, SVG Export Plug-In . SVG Version: 6.00 Build 0)  -->
<svg version="1.1" id="Layer_1" xmlns="http://www.w3.org/2000/svg" xmlns:xlink="http://www.w3.org/1999/xlink" x="0px" y="0px"
	 viewBox="0 0 100 100" style="enable-background:new 0 0 100 100;" xml:space="preserve">
<style type="text/css">
	.st0{fill-rule:evenodd;clip-rule:evenodd;fill:#36C5F0;}
	.st1{fill-rule:evenodd;clip-rule:evenodd;fill:#2EB67D;}
	.st2{fill-rule:evenodd;clip-rule:evenodd;fill:#ECB22E;}
	.st3{fill-rule:evenodd;clip-rule:evenodd;fill:#E01E5A;}
</style>
<g>
	<path class="st0" d="M37.1,1.5c-5.4,0-9.7,4.4-9.7,9.7s4.4,9.7,9.7,9.7h9.7v-9.7C46.8,5.9,42.4,1.5,37.1,1.5L37.1,1.5 M37.1,27.3
		H11.3c-5.4,0-9.7,4.4-9.7,9.7s4.4,9.7,9.7,9.7h25.8c5.4,0,9.7-4.4,9.7-9.7S42.4,27.3,37.1,27.3L37.1,27.3z"/>
	<path class="st1" d="M98.5,37.1c0-5.4-4.4-9.7-9.7-9.7c-5.4,0-9.7,4.4-9.7,9.7v9.7h9.7C94.1,46.8,98.5,42.4,98.5,37.1z M72.7,37.1
		V11.3c0-5.4-4.4-9.7-9.7-9.7s-9.7,4.4-9.7,9.7v25.8c0,5.4,4.4,9.7,9.7,9.7S72.7,42.4,72.7,37.1z"/>
	<path class="st2" d="M62.9,98.5c5.4,0,9.7-4.4,9.7-9.7c0-5.4-4.4-9.7-9.7-9.7h-9.7v9.7C53.2,94.1,57.6,98.5,62.9,98.5z M62.9,72.7
		h25.8c5.4,0,9.7-4.4,9.7-9.7s-4.4-9.7-9.7-9.7H62.9c-5.4,0-9.7,4.4-9.7,9.7S57.6,72.7,62.9,72.7L62.9,72.7z"/>
	<path class="st3" d="M1.5,62.9c0,5.4,4.4,9.7,9.7,9.7s9.7-4.4,9.7-9.7v-9.7h-9.7C5.9,53.2,1.5,57.6,1.5,62.9z M27.3,62.9v25.8
		c0,5.4,4.4,9.7,9.7,9.7s9.7-4.4,9.7-9.7V62.9c0-5.4-4.4-9.7-9.7-9.7S27.3,57.6,27.3,62.9L27.3,62.9"/>
</g>
</svg>
